!!!COM: Gaspar van Weerbeke
!!!CDT: ~1450-~1517
!!!OTL: Missa octavi toni
!!!OTL: Kyrie
!!!AGN: Mass
!!!SCT: Gas0204a
!!!SCA: Gas0204a
!!!voices: 4
**kern	**text	**kern	**text	**kern	**text	**kern	**text
*part4	*part4	*part3	*part3	*part2	*part2	*part1	*part1
*staff4	*staff4	*staff3	*staff3	*staff2	*staff2	*staff1	*staff1
*I"Bassus	*	*I"Tenor	*	*I"Altus	*	*I"Superius	*
*I'B	*	*I'T	*	*I'A	*	*I'S	*
*clefF4	*	*clefGv2	*	*clefGv2	*	*clefG2	*
*k[]	*	*k[]	*	*k[]	*	*k[]	*
*M3/2	*	*M3/2	*	*M3/2	*	*M3/2	*
*met(O)	*	*met(O)	*	*met(O)	*	*met(O)	*
=1	=1	=1	=1	=1	=1	=1	=1
*	*	*lig	*	*	*	*	*
1G	Ky-	1.G	Ky-	2.d	Ky-	1g	Ky-
.	.	.	.	2B	-ri-	.	.
2E	-ri-	.	.	.	.	2g	-ri-
.	.	.	.	4G	.	.	.
=2	=2	=2	=2	=2	=2	=2	=2
1C	-e	1c	.	2G	-e	1e	-e
*	*	*	*	*	*edit	*	*
.	.	.	.	4E	e-	.	.
.	.	.	.	4.e	-ley-	.	.
*	*	*Xlig	*	*	*	*	*
*	*edit	*	*	*	*	*	*edit
2E	e-	2B	-ri-	.	.	2g	e-
.	.	.	.	8d	.	.	.
.	.	.	.	4B	.	.	.
=3	=3	=3	=3	=3	=3	=3	=3
2AA	-ley-	2.A	-e	2.c	-son,	2.a	-ley-
4C	.	.	.	.	.	.	.
4D	.	4B	.	2.A	e-	8gL	.
.	.	.	.	.	.	8fJ	.
*	*	*	*edit	*	*	*	*
2AA	.	2c	e-	.	.	2e	.
=4	=4	=4	=4	=4	=4	=4	=4
1D	.	1d	-ley-	2A	-ley-	2d	-son,
*	*	*	*	*lig	*	*	*
.	.	.	.	2F	-son,	2r	.
2GG	-son,	4.B	.	2G	.	2g	Ky-
.	.	8G	.	.	.	.	.
*	*	*	*	*Xlig	*	*	*
=5	=5	=5	=5	=5	=5	=5	=5
2r	.	1G	-son,	4r	.	2.b	.
.	.	.	.	2d	Ky-	.	.
2r	.	.	.	.	.	.	.
.	.	.	.	4e	.	4g	.
2F	Ky-	2c	Ky-	2f	-ri-	2a	-ri-
!!LO:LB:g=original
=6	=6	=6	=6	=6	=6	=6	=6
4E	-ri-	2e	-ri-	2g	.	4g	-e
4F	.	.	.	.	.	2cc	e-
1G	-e e-	1d	-e	2g	-e	.	.
.	.	.	.	.	.	4b	.
*	*	*	*	*	*	*col	*
.	.	.	.	4r	.	4.b	-ley-
.	.	.	.	4g	e-	.	.
.	.	.	.	.	.	8a	.
*	*	*	*	*	*	*Xcol	*
=7	=7	=7	=7	=7	=7	=7	=7
*	*	*	*	*lig	*	*	*
2A	-ley-	2c	e-	2e	-ley-	2cc	-son,
*lig	*	*	*	*	*	*	*
2D	-son,	2d	-ley-	2f	.	2a	.
*	*	*	*	*Xlig	*	*	*
2G	.	2B	.	2d	-son,	4b	e-
.	.	.	.	.	.	[4g	.
*Xlig	*	*	*	*	*	*	*
=8	=8	=8	=8	=8	=8	=8	=8
2r	.	1G	-son,	4r	.	8gL]	.
.	.	.	.	.	.	8aJ	.
.	.	.	.	4.d	Ky-	4.b	.
*lig	*	*	*	*	*	*	*
2GG	Ky-	.	.	.	.	.	.
.	.	.	.	8c	.	8a	.
.	.	.	.	4B	.	4g	.
2D	.	2A	e-	4A	-ri-	2f	.
.	.	.	.	4d	.	.	.
*Xlig	*	*	*	*	*	*	*
=9	=9	=9	=9	=9	=9	=9	=9
4G	-ri-	4B	.	4B	-e	4g	.
2F	-e	2c	-ley-	2A	e-	2a	-ley-
*	*	*	*	*col	*	*	*
4G	e-	4B	.	4.d	-ley-	2g	.
2D	-ley-	2A	.	.	.	.	.
.	.	.	.	8cL	.	.	.
*	*	*	*	*Xcol	*	*	*
.	.	.	.	8B	.	4f#i	.
.	.	.	.	8AJ	.	.	.
=10	=10	=10	=10	=10	=10	=10	=10
1GG	-son,	1G	-son,	2B	-son,	1g	-son,
.	.	.	.	4.G	e-	.	.
.	.	.	.	8A	.	.	.
2G	e-	2r	.	8BL	.	2r	.
.	.	.	.	8cJ	.	.	.
.	.	.	.	[4d	.	.	.
!!LO:LB:g=original
=11	=11	=11	=11	=11	=11	=11	=11
4D	-ley-	1.r	.	8dL]	.	1.r	.
.	.	.	.	8cJ	.	.	.
4C	.	.	.	2A	-ley-	.	.
4D	.	.	.	.	.	.	.
4BB	.	.	.	2G	.	.	.
2AA	.	.	.	.	.	.	.
.	.	.	.	4F#i	.	.	.
=12	=12	=12	=12	=12	=12	=12	=12
1GG	-son,	1B	Ky-	1G	-son,	1.r	.
2r	.	4.c	-ri-	2r	.	.	.
.	.	8B	.	.	.	.	.
=13	=13	=13	=13	=13	=13	=13	=13
1.r	.	1G	-e	1.r	.	2.b	Ky-
.	.	.	.	.	.	4b	-ri-
.	.	2F	e-	.	.	4cc	.
.	.	.	.	.	.	8bL	.
.	.	.	.	.	.	8aJ	.
=14	=14	=14	=14	=14	=14	=14	=14
1.r	.	4G	-ley-	1.r	.	2g	-e
.	.	4B	.	.	.	.	.
.	.	2A	-son,	.	.	2f#j	e-
.	.	4r	.	.	.	4g	-ley-
.	.	4G	Ky-	.	.	4b	.
=15	=15	=15	=15	=15	=15	=15	=15
1.r	.	4F	.	1.r	.	2a	-son,
.	.	4D	.	.	.	.	.
.	.	2E	-ri-	.	.	4r	.
.	.	.	.	.	.	4g	Ky-
.	.	2D	-e,	.	.	4f	.
.	.	.	.	.	.	4d	.
=16	=16	=16	=16	=16	=16	=16	=16
1.r	.	4r	.	1.r	.	4e	.
.	.	4D	Ky-	.	.	2a	-ri-
*	*	*col	*	*	*	*	*
.	.	4.F	-ri-	.	.	.	.
.	.	.	.	.	.	4f	.
.	.	8G	.	.	.	.	.
*	*	*Xcol	*	*	*	*	*
.	.	8AL	.	.	.	2e	-e
.	.	8BJ	.	.	.	.	.
.	.	4c	-e	.	.	.	.
!!LO:LB:g=original
=17	=17	=17	=17	=17	=17	=17	=17
1.r	.	4d	e-	4d	e-	4d	e-
.	.	2e	-ley-	2c	-ley-	2g	-ley-
.	.	2d	.	4d	.	4f	.
.	.	.	.	[2A	-son,	2e	.
.	.	4c#i	.	.	.	.	.
=18	=18	=18	=18	=18	=18	=18	=18
1.D	Ky-	1d	-son,	2A]	.	2d	-son,
.	.	.	.	2B-i	Ky-	4r	.
.	.	.	.	.	.	4d	Ky-
*	*	*	*	*	*	*col	*
.	.	2r	.	2A	-ri-	4.f	-ri-
.	.	.	.	.	.	8g	.
*	*	*	*	*	*	*Xcol	*
=19	=19	=19	=19	=19	=19	=19	=19
*lig	*	*	*	*lig	*	*lig	*
2F	-ri-	2.d	Ky-	2D	-e	2a	-e
2G	.	.	.	2d	e-	2b	.
.	.	8cL	.	.	.	.	.
.	.	8BJ	.	.	.	.	.
*Xlig	*	*	*	*Xlig	*	*Xlig	*
4F	.	2A	-ri-	2f	-ley-	[2cc	e-
8EL	.	.	.	.	.	.	.
8DJ	.	.	.	.	.	.	.
=20	=20	=20	=20	=20	=20	=20	=20
1C	-e	1c	-e	1e	-son,	4cc]	.
.	.	.	.	.	.	8bL	.
.	.	.	.	.	.	8aJ	.
.	.	.	.	.	.	2.g	.
4E	e-	4B	e-	2r	.	.	.
*	*	*	*	*	*	*lig	*
4F	.	4A	.	.	.	[4a	-ley-
=21	=21	=21	=21	=21	=21	=21	=21
4D	.	2.d	-ley-	2r	.	4a]	.
2G	-ley-	.	.	.	.	2b	.
*	*	*	*	*	*	*Xlig	*
.	.	.	.	4r	.	.	.
4A	.	4c	.	2.e	e-	2a	.
2E	.	2B	.	.	.	.	.
.	.	.	.	.	.	4g#i	.
!!LO:PB:g=original
=22	=22	=22	=22	=22	=22	=22	=22
*lig	*	*	*	*	*	*	*
2AA	-son,	2A	-son,	2e	-ley-	2a	-son,
2D	.	4r	.	4.d	-son,	4r	.
.	.	4.D	Ky-	.	.	2a	Ky-
.	.	.	.	8c	.	.	.
*Xlig	*	*	*	*	*	*	*
4r	.	.	.	2A	.	.	.
.	.	8EL	.	.	.	.	.
[4D	Ky-	8F	.	.	.	4d	-ri-
.	.	8GJ	.	.	.	.	.
=23	=23	=23	=23	=23	=23	=23	=23
4D]	.	4A	.	4r	.	4f	-e
4BB	.	4B	.	4D	Ky-	4g	.
*	*	*lig	*	*	*	*	*
2AA	-ri-	2c	-ri-	4E	.	2a	.
.	.	.	.	4F	.	.	.
2GG	-e	2d	-e	4.G	-ri-	4.b	e-
.	.	.	.	8A	.	8cc	.
*	*	*Xlig	*	*	*	*	*
=24	=24	=24	=24	=24	=24	=24	=24
*	*	*	*	*	*	*col	*
2G	e-	4B	e-	8BL	-e	4.dd	.
.	.	.	.	8c	.	.	.
.	.	4G	.	8d	.	.	.
.	.	.	.	8eJ	.	8cc	.
*	*	*	*	*	*	*Xcol	*
4F	.	4c	.	4f	.	4a	.
4G	.	4B	.	4d	e-	4g	.
*	*	*	*	*	*Xedit	*	*
*	*	*	*	*col	*	*	*
2F	.	2A	.	4.f	-ley-	2cc	.
*	*	*	*	*col	*	*	*
.	.	.	.	8e	.	.	.
*	*	*	*	*Xcol	*	*	*
=25	=25	=25	=25	=25	=25	=25	=25
4G	.	4G	.	8dL	.	4b	.
.	.	.	.	8cJ	.	.	.
*	*	*	*	*	*	*	*Xedit
4D	.	4F	.	4d	.	2a	-ley-
*	*	*lig	*	*	*	*	*
*	*Xedit	*	*Xedit	*	*	*	*
2E	-ley-	2G	-ley-	4B	.	.	.
.	.	.	.	4c	.	2g	.
2D	.	2A	.	2d	.	.	.
.	.	.	.	.	.	4f#i	.
=26	=26	=26	=26	=26	=26	=26	=26
0GG	-son.	0G	-son.	0d	-son.	0g	-son.
*	*	*Xlig	*	*	*	*	*
!!LO:LB:g=original
=27||	=27||	=27||	=27||	=27||	=27||	=27||	=27||
*M2/2	*	*M2/2	*	*M2/2	*	*M2/2	*
*met(C|)	*	*met(C|)	*	*met(C|)	*	*met(C|)	*
*	*	*lig	*	*	*	*	*
1G	Chri-	[1G	Chri-	1r	.	1r	.
=28	=28	=28	=28	=28	=28	=28	=28
2E	.	1G]	.	1r	.	1r	.
2C	.	.	.	.	.	.	.
=29	=29	=29	=29	=29	=29	=29	=29
*	*	*col	*	*	*	*	*
2.F	.	2.A	.	1r	.	1r	.
*	*	*Xlig	*	*	*	*	*
4E	.	4B	.	.	.	.	.
*	*	*Xcol	*	*	*	*	*
=30	=30	=30	=30	=30	=30	=30	=30
1C	-ste	2.c	-ste	1r	.	1r	.
.	.	8BL	.	.	.	.	.
.	.	8AJ	.	.	.	.	.
=31	=31	=31	=31	=31	=31	=31	=31
*lig	*	*	*	*	*	*	*
*	*edit	*	*	*	*	*	*
2E	e-	2G	.	1r	.	1r	.
*	*	*	*edit	*	*	*	*
2D	.	[2A	e-	.	.	.	.
*Xlig	*	*	*	*	*	*	*
=32	=32	=32	=32	=32	=32	=32	=32
2C	.	2A]	.	1r	.	1r	.
4BB	.	2G	.	.	.	.	.
[4C	.	.	.	.	.	.	.
=33	=33	=33	=33	=33	=33	=33	=33
4C]	.	4E	.	1r	.	1r	.
2D	.	4F	.	.	.	.	.
.	.	4D	.	.	.	.	.
4BB	.	[4G	.	.	.	.	.
!!LO:LB:g=original
=34	=34	=34	=34	=34	=34	=34	=34
2AA	-ley-	4G]	.	1r	.	1r	.
.	.	4F#i	.	.	.	.	.
[2GG	-son,	[2G	-ley-	.	.	.	.
=35	=35	=35	=35	=35	=35	=35	=35
2GG]	.	4G]	.	1r	.	1r	.
.	.	2E	.	.	.	.	.
[2C	e-	.	.	.	.	.	.
.	.	4C	.	.	.	.	.
=36	=36	=36	=36	=36	=36	=36	=36
4C]	.	2D	-son,	1r	.	1r	.
4AA	.	.	.	.	.	.	.
2BB	-ley-	2r	.	.	.	.	.
=37	=37	=37	=37	=37	=37	=37	=37
1C	-son,	2.c	Chri-	1r	.	1r	.
.	.	4A	.	.	.	.	.
=38	=38	=38	=38	=38	=38	=38	=38
1r	.	2B	.	1r	.	2.g	Chri-
.	.	2c	.	.	.	.	.
.	.	.	.	.	.	4e	.
=39	=39	=39	=39	=39	=39	=39	=39
*	*	*lig	*	*	*	*	*
1r	.	2A	-ste	1r	.	2f	.
.	.	2G	.	.	.	2g	.
*	*	*Xlig	*	*	*	*	*
=40	=40	=40	=40	=40	=40	=40	=40
1r	.	2c	e-	1r	.	2e	-ste
.	.	2B	.	.	.	2d	.
=41	=41	=41	=41	=41	=41	=41	=41
*	*	*lig	*	*	*	*	*
*	*	*	*	*	*	*	*edit
1r	.	1G	-ley-	1r	.	2.g	e-
.	.	.	.	.	.	4f	.
!!LO:LB:g=original
=42	=42	=42	=42	=42	=42	=42	=42
*	*	*	*	*	*	*lig	*
1r	.	1B	.	1r	.	2d	.
.	.	.	.	.	.	2g	.
*	*	*	*	*	*	*Xlig	*
*	*	*Xlig	*	*	*	*	*
=43	=43	=43	=43	=43	=43	=43	=43
1r	.	2A	-son,	1r	.	4f	.
.	.	.	.	.	.	4.a	-ley-
.	.	[2d	e-	.	.	.	.
.	.	.	.	.	.	8g	.
.	.	.	.	.	.	[4f	.
=44	=44	=44	=44	=44	=44	=44	=44
1r	.	2d]	.	1r	.	4f]	.
.	.	.	.	.	.	8eL	.
.	.	.	.	.	.	8dJ	.
.	.	2c#i	.	.	.	2e	-son,
=45	=45	=45	=45	=45	=45	=45	=45
*lig	*	*	*	*	*	*	*
2D	Chri-	2.d	-ley-	1r	.	1r	.
2F	.	.	.	.	.	.	.
.	.	8cL	.	.	.	.	.
.	.	8BJ	.	.	.	.	.
*Xlig	*	*	*	*	*	*	*
=46	=46	=46	=46	=46	=46	=46	=46
4E	.	4c	.	1r	.	1r	.
4D	.	2d	.	.	.	.	.
2E	.	.	.	.	.	.	.
.	.	4c#i	.	.	.	.	.
=47	=47	=47	=47	=47	=47	=47	=47
2D	-ste	4.d	.	1r	.	1r	.
.	.	8c	.	.	.	.	.
4F	e-	4A	.	.	.	.	.
[4E	.	[4G	.	.	.	.	.
=48	=48	=48	=48	=48	=48	=48	=48
4E]	.	4G]	.	1r	.	1r	.
2D	-ley-	4F	.	.	.	.	.
.	.	2E	.	.	.	.	.
4C#i	.	.	.	.	.	.	.
!!LO:PB:g=original
=49	=49	=49	=49	=49	=49	=49	=49
2D	-son,	2D	-son,	1r	.	1r	.
2BB	e-	4r	.	.	.	.	.
.	.	[4G	e-	.	.	.	.
=50	=50	=50	=50	=50	=50	=50	=50
4.C	.	4G]	.	1r	.	1r	.
.	.	4A	.	.	.	.	.
8BB	.	.	.	.	.	.	.
2GG	.	2B	.	.	.	.	.
=51	=51	=51	=51	=51	=51	=51	=51
2AA	.	4.c	.	1r	.	1r	.
.	.	8B	.	.	.	.	.
4BB	.	2G	.	.	.	.	.
[4C	.	.	.	.	.	.	.
=52	=52	=52	=52	=52	=52	=52	=52
4C]	.	4E	.	1r	.	1r	.
4BB	.	2D	.	.	.	.	.
2GG	.	.	.	.	.	.	.
.	.	[4G	.	.	.	.	.
=53	=53	=53	=53	=53	=53	=53	=53
4BB	.	4G]	.	2r	.	1r	.
4C	.	4E	.	.	.	.	.
2AA	-ley-	2F#i	-ley-	2c	Chri-	.	.
=54	=54	=54	=54	=54	=54	=54	=54
*	*	*lig	*	*lig	*	*	*
1GG	-son,	1G	-son,	2B	.	1g	Chri-
.	.	.	.	[2d	.	.	.
*	*	*	*	*Xlig	*	*	*
=55	=55	=55	=55	=55	=55	=55	=55
*	*	*	*	*	*	*lig	*
1r	.	1D	.	4d]	.	2f	.
.	.	.	.	4c	.	.	.
.	.	.	.	2A	-ste	[2a	.
*	*	*	*	*	*	*Xlig	*
*	*	*Xlig	*	*	*	*	*
=56	=56	=56	=56	=56	=56	=56	=56
*	*	*	*	*lig	*	*	*
*	*	*	*	*	*edit	*	*
1r	.	2r	.	2d	e-	4a]	.
.	.	.	.	.	.	4g	.
.	.	2A	e-	2c	.	2e	-ste
*	*	*	*	*Xlig	*	*	*
!!LO:LB:g=original
=57	=57	=57	=57	=57	=57	=57	=57
*	*	*	*	*	*	*lig	*
1r	.	2F	-lei-	2f	.	2a	e-
.	.	2C	.	2e	.	2g	.
*	*	*	*	*	*	*Xlig	*
=58	=58	=58	=58	=58	=58	=58	=58
*	*	*lig	*	*	*	*	*
1r	.	2D	-son,	4d	.	4f	.
.	.	.	.	2d	-lei-	4d	.
.	.	2A	.	.	.	2e	.
.	.	.	.	4c#i	.	.	.
*	*	*Xlig	*	*	*	*	*
=59	=59	=59	=59	=59	=59	=59	=59
2.D	e-	2r	.	2.d	-son,	4d	-lei-
.	.	.	.	.	.	4e	.
.	.	[2d	e-	.	.	4f	.
4E	.	.	.	4c	.	4g	.
=60	=60	=60	=60	=60	=60	=60	=60
*lig	*	*	*	*	*	*lig	*
2F	.	4d]	.	2A	.	2a	-son,
.	.	4c	.	.	.	.	.
2G	.	2B	.	2G	.	2b	.
*	*	*lig	*	*	*	*	*
*Xlig	*	*	*	*	*	*	*
=61	=61	=61	=61	=61	=61	=61	=61
2F	.	2A	.	2r	.	2cc	e-
*	*	*Xlig	*	*	*	*	*
4G	.	4G	.	4r	.	4b	.
[4F	.	[4c	.	[4A	e-	[4a	.
=62	=62	=62	=62	=62	=62	=62	=62
4F]	.	4c]	.	4A]	.	4a]	.
2G	.	4B	.	2B	-lei-	2d	.
.	.	2G	.	.	.	.	.
4E	.	.	.	4c	.	[4g	.
=63	=63	=63	=63	=63	=63	=63	=63
4.D	-lei-	1A	-lei-	1d	-son,	4g]	.
.	.	.	.	.	.	4f#i	.
8C	.	.	.	.	.	.	.
2D	-son,	.	.	.	.	4.f#i	-lei-
.	.	.	.	.	.	8e	.
!!LO:LB:g=original
=64	=64	=64	=64	=64	=64	=64	=64
*	*	*lig	*	*lig	*	*	*
2GG	e-	[1G	-son,	2B	e-	1g	-son,
[2C	-lei-	.	.	[2e	.	.	.
*	*	*	*	*Xlig	*	*	*
=65	=65	=65	=65	=65	=65	=65	=65
2C]	.	1G]	.	4e]	.	2.e	e-
.	.	.	.	8dL	.	.	.
.	.	.	.	8cJ	.	.	.
2E	.	.	.	4B	.	.	.
.	.	.	.	4c	.	4c	.
=66	=66	=66	=66	=66	=66	=66	=66
*lig	*	*	*	*	*	*	*
2D	-son,	1A	.	2d	-lei-	4.f	.
.	.	.	.	.	.	8e	.
2F	.	.	.	2A	-son,	8dL	.
.	.	.	.	.	.	8cJ	.
.	.	.	.	.	.	[4d	.
*Xlig	*	*Xlig	*	*	*	*	*
=67	=67	=67	=67	=67	=67	=67	=67
*	*	*lig	*	*	*	*	*
4E	e-	2G	e-	4r	.	4d]	.
8DL	.	.	.	4e	e-	2c	-lei-
8CJ	.	.	.	.	.	.	.
2D	.	2F	.	2f	.	.	.
.	.	.	.	.	.	4B	.
*	*	*Xlig	*	*	*	*	*
=68	=68	=68	=68	=68	=68	=68	=68
*	*Xedit	*	*	*	*	*	*
[1C	-lei-	2.G	.	4.e	.	4.c	-son,
.	.	.	.	8f	.	8d	.
.	.	.	.	4g	.	4.e	.
*	*	*	*	*	*Xedit	*	*
.	.	4A	.	[4c	-lei-	.	.
.	.	.	.	.	.	8f	.
=69	=69	=69	=69	=69	=69	=69	=69
2C]	.	4G	.	8c]	.	4g	.
.	.	.	.	8BL	.	.	.
*	*	*	*Xedit	*	*	*	*
.	.	2c	-lei-	8A	.	4a	e-
.	.	.	.	8GJ	.	.	.
*	*	*	*	*	*	*	*Xedit
2D	.	.	.	2F	.	8b-iL	-lei-
.	.	.	.	.	.	8a	.
.	.	4B	.	.	.	8g	.
.	.	.	.	.	.	8fJ	.
=70	=70	=70	=70	=70	=70	=70	=70
0C	-son.	0c	-son.	0G	-son.	0e	-son.
!!LO:LB:g=original
=71||	=71||	=71||	=71||	=71||	=71||	=71||	=71||
*M3/2	*	*M3/2	*	*M3/2	*	*M3/2	*
*met(O)	*	*met(O)	*	*met(O)	*	*met(O)	*
1.r	.	1G	Ky-	1d	Ky-	1g	Ky-
.	.	2G	-ri-	2e	-ri-	2g	-ri-
=72	=72	=72	=72	=72	=72	=72	=72
1.r	.	2.F	-e	2.f	-e	2.a	-e
.	.	4G	.	4e	.	4b	.
*	*	*	*	*	*edit	*	*edit
.	.	2A	.	2f	e-	2cc	e-
=73	=73	=73	=73	=73	=73	=73	=73
*	*	*	*edit	*	*	*	*
1GG	Ky-	1G	e-	4.g	-lei-	1b	-lei-
.	.	.	.	8f	.	.	.
.	.	.	.	4.d	.	.	.
.	.	.	.	8c	.	.	.
2GG	-ri-	2B	.	8BL	.	4g	.
.	.	.	.	8AJ	.	.	.
.	.	.	.	4G	.	4e	.
=74	=74	=74	=74	=74	=74	=74	=74
2.D	-e	4A	.	4F	.	2.f	-son,
.	.	2d	.	2A	.	.	.
4E	.	4B	.	4G	-son,	4g	e-
2F	.	2A	.	2r	.	8aL	.
.	.	.	.	.	.	8b	.
.	.	.	.	.	.	8cc	.
.	.	.	.	.	.	8ddJ	.
=75	=75	=75	=75	=75	=75	=75	=75
*	*edit	*	*	*	*	*	*
4G	e-	4G	.	2d	e-	4b	.
4D	.	4F	.	.	.	2a	-lei-
*	*	*lig	*	*	*	*	*
2E	.	2G	-lei-	4B	.	.	.
.	.	.	.	4c	.	2g	.
2D	.	2A	.	2d	.	.	.
.	.	.	.	.	.	4f#i	.
*	*	*Xlig	*	*	*	*	*
!!LO:PB:g=original
=76	=76	=76	=76	=76	=76	=76	=76
2.E	-lei-	1G	-son,	4B	-lei-	2g	-son,
.	.	.	.	4G	.	.	.
.	.	.	.	2G	-son,	2r	.
4C	.	.	.	.	.	.	.
2C	-son,	2r	.	2r	.	2r	.
=77	=77	=77	=77	=77	=77	=77	=77
2r	.	1.c	ky-	2.A	ky-	2e	ky-
2r	.	.	.	.	.	4.e	-ri-
.	.	.	.	8GL	.	.	.
.	.	.	.	8FJ	.	8f	.
4.C	ky-	.	.	4.E	-ri-	4g	.
.	.	.	.	.	.	4a	.
8D	.	.	.	8F	.	.	.
=78	=78	=78	=78	=78	=78	=78	=78
4E	.	1c	-ri-	4G	-e	4g	-e
2.F	-ri-	.	.	4A	.	2cc	e-
.	.	.	.	4F	.	.	.
.	.	.	.	4A	.	2a	.
2G	.	2B	-e	2E	.	.	.
.	.	.	.	.	.	4g	.
=79	=79	=79	=79	=79	=79	=79	=79
2D	-e	4.A	e-	4r	.	4f	.
.	.	.	.	4.F	e-	2a	.
.	.	8B	.	.	.	.	.
4r	.	4c	.	.	.	.	.
.	.	.	.	8GL	.	.	.
4D	e-	2d	-lei-	8A	.	4f	.
.	.	.	.	8BJ	.	.	.
2A	-lei-	.	.	4c	-lei-	2e	-lei-
.	.	4c#i	.	4A	.	.	.
=80	=80	=80	=80	=80	=80	=80	=80
1D	-son,	1d	-son,	2A	-son,	2d	-son,
.	.	.	.	2r	.	2r	.
2r	.	2d	ky-	2r	.	2f	ky-
!!LO:LB:g=original
=81	=81	=81	=81	=81	=81	=81	=81
1.r	.	4c	-ri-	1.r	.	4e	-ri-
.	.	4d	.	.	.	4.f	-e
.	.	2A	.	.	.	.	.
.	.	.	.	.	.	8e	.
.	.	.	.	.	.	2a	e-
.	.	2B	.	.	.	.	.
.	.	.	.	.	.	4g	.
=82	=82	=82	=82	=82	=82	=82	=82
1.r	.	4A	-e	1.r	.	4f	.
.	.	4G	.	.	.	2e	-lei-
.	.	4A	e-	.	.	.	.
.	.	4F	.	.	.	2d	.
.	.	2E	-lei-	.	.	.	.
.	.	.	.	.	.	4c#i	.
=83	=83	=83	=83	=83	=83	=83	=83
2D	ky-	1D	-son,	2A	ky-	1d	-son,
4.F	-ri-	.	.	4.A	-ri-	.	.
8E	.	.	.	8G	.	.	.
4D	-e	4F	e-	4F	-e	2r	.
4C	.	4G	.	4E	.	.	.
=84	=84	=84	=84	=84	=84	=84	=84
4BB-i	e-	4B-i	.	4D	e-	1.r	.
4C	.	2A	-lei-	4E	.	.	.
4D	.	.	.	4F	.	.	.
4BB-i	.	2G	.	2D	-lei-	.	.
2AA	-lei-	.	.	.	.	.	.
.	.	4F#i	.	4C	.	.	.
=85	=85	=85	=85	=85	=85	=85	=85
2GG	-son,	2G	-son,	4.D	-son,	1d	e-
.	.	.	.	8E	.	.	.
2r	.	2r	.	4F	.	.	.
.	.	.	.	4G	.	.	.
2r	.	2r	.	4A	e-	4f	.
.	.	.	.	4B-i	.	4g	.
!!LO:LB:g=original
=86	=86	=86	=86	=86	=86	=86	=86
1.r	.	1.r	.	4G	.	4b-i	.
.	.	.	.	2d	-lei-	2a	-lei-
.	.	.	.	4B	.	2g	.
.	.	.	.	2A	.	.	.
.	.	.	.	.	.	4f#i	.
=87	=87	=87	=87	=87	=87	=87	=87
2GG	ky-	1G	ky-	2.G	-son,	1g	-son,
1C	-ri-	.	.	.	.	.	.
.	.	.	.	4.E	ky-	.	.
.	.	[2c	-ri-	.	.	2r	.
.	.	.	.	8F	.	.	.
.	.	.	.	4G	.	.	.
=88	=88	=88	=88	=88	=88	=88	=88
*	*	*	*	*	*	*lig	*
2E	-e	4c]	.	4C	.	2g	ky-
.	.	4B	.	4G	.	.	.
2F	.	4A	.	2A	-ri-	2cc	.
.	.	2d	-e	.	.	.	.
*	*	*	*	*	*	*Xlig	*
4G	.	.	.	4G	-e	4b	-ri-
[4A	e-	4c	e-	4c	.	4a	.
=89	=89	=89	=89	=89	=89	=89	=89
4A]	.	4B	.	4.d	e-	4b	-e
2G	-lei-	4G	.	.	.	2dd	e-
.	.	.	.	8e	.	.	.
.	.	2A	.	2f	.	.	.
4F#i	.	.	.	.	.	4cc	.
2G	-son,	4G	.	4d	.	8bL	.
.	.	.	.	.	.	8aJ	.
.	.	4E	.	8eL	.	4g	.
.	.	.	.	8cJ	.	.	.
=90	=90	=90	=90	=90	=90	=90	=90
4r	.	4D	.	4d	.	4f	.
*	*	*	*	*	*	*	*Xedit
4D	e-	4F	.	4A	.	2a	-lei-
4BB	.	4G	.	4B	.	.	.
*	*	*	*	*	*Xedit	*	*
4GG	.	4B	.	2.d	-lei-	2g	.
*	*Xedit	*	*Xedit	*	*	*	*
2D	-lei-	2A	-lei-	.	.	.	.
.	.	.	.	.	.	4f#i	.
=91	=91	=91	=91	=91	=91	=91	=91
0GGl	-son.	0Gl	-son.	0dl	-son.	0gl	-son.
==	==	==	==	==	==	==	==
*-	*-	*-	*-	*-	*-	*-	*-
!!!system-decoration: [*]
!!!Xfilter: gasparize
!!!RDF**kern: j = editorial accidental, optional, paren up
!!!RDF**kern: i = editorial accidental
!!!RDF**kern: l = terminal long
!!!PTL: Gaspar van Weerbeke: Collected Works. V. Settings of Liturgical Texts, Songs, and Instrumental Works
!!!PPR: American Institute of Musicology
!!!PC#: Corpus Mensurabilis Musicae 106/V
!!!PDT: {YEAR}
!!!PED: Kolb, Paul
!!!PED: Pavanello, Agnese
!!!YEC: Copyright {YEAR}, Kolb, Paul
!!!YEC: Copyright {YEAR}, Pavanello, Agnese
!!!YEM: CC-BY-SA 4.0 (https://creativecommons.org/licenses/by-nc/4.0/legalcode)
!!!EED: Zybina, Karina
!!!EED: Mair-Gruber, Roland
!!!EEV: 2021/11/10
